X:1
T:Title
%%score { ( 1 3 5 ) | ( 2 4 6 ) }
L:1/8
Q:1/4=100
M:4/4
K:F
V:1 treble nm="Grand Piano"
V:3 treble 
V:5 treble 
V:2 bass 
V:4 bass 
V:6 bass 
V:1
 A2 A>A A2 (3CFA | c>d c>F A4 | [EB]2 [EB]>[EB] [EB]2 (3CEG | B>c e>d c2 [CEB]2 | A2 A>A A2 (3CFA | %5
w: John~R.~Sweney * * * * * *|||||
 c>d c>F A4 | [DG]>[DB] [Ge]>[Fd] [Fc]>[GB] [FA]>[EG] | F2 A2 F2 z2 | [EG]2 [EG]>[EG] [EG]2 (3GEG | %9
w: ||||
 c>=B D>E F4 | F2 F>F F2 (3FDF | A>G C>D E4 | [EG]2 [EG]>[EG] [EG]2 (3[_Ae][Ad][A=B] | %13
w: ||||
 [Ad]2 [Ac]>[Ac] [Ac]2 (3dcA | G2 (3GEG c2 (3cGc |[M:9/8] e2 d- d c2- [Bc]3 | %16
w: |||
[M:4/4] (3[Ac][Ac][Ac] [Ac]>[Bd] A>A F>A | (3CCC F>A c4 | (3ccc e>d B4 | %19
w: |||
 (3[GB][GB][GB] [Bd]>[Ac] [FA]4 | (3[Ac][Ac][Ac] [Ac]>[Bd] [Ac]>A F>_E | (3DDD [DF]>[DB] [Fd]4 | %22
w: |||
 [Ec]>[EB] [Be]>[Bd] [Ac]>[GB] [FA]>[EG] |[M:3/4] F2 A2 F2 |[M:1/4] (3Acf | %25
w: |||
[M:4/4] [cfa]2 [Beg]2 [Adf]2 [Gce]2 | z2 f4[K:bass][K:treble] z2 | [FAc]2 (3FEF [CFA]2 [=B,CEG]2 | %28
w: |||
 [A,CF]6 z2 |] %29
w: |
V:2
 [F,CF]2 [F,CF]>[F,CF] [F,CF]2 (3C,F,A, | C>D C>F, A,4 | [C,G,]2 [C,G,]>[C,G,] [C,G,]2 (3C,E,G, | %3
 B,>C E>D C2 C,2 | [F,CF]2 [F,CF]>[F,CF] [F,CF]2 (3C,F,A, | C>D C>F, A,4 | %6
 [B,,B,]>[B,,B,] [B,,B,]>[B,,B,] [C,A,]>[C,C] [C,C]>[C,B,] | [F,A,]2 [F,CF]2 [F,A,C]2 z2 | %8
 [C,C]2 [C,C]>[C,C] [C,C]2 (3G,E,G, | C>=B, D,>E, F,4 | %10
 [G,=B,D]2 [G,B,D]>[G,B,D] [G,B,D]2 (3F,D,F, | A,>G, C,>D, E,4 | %12
 [C,C]2 [C,C]>[C,C] [C,C]2 (3[E,=B,][E,B,][E,D] | %13
 [F,C]2 [F,C]>[F,C] [F,C]2 (3[F,A,F][F,A,F][F,CF] | [G,CE]2 (3G,E,G,[K:treble] C2 (3CG,C | %15
[M:9/8] [G,CG]2[K:bass] [G,,G,=B,F]- [G,,G,B,F] z z E3 | %16
[M:4/4] (3[F,F][F,F][F,F] [F,F]>[F,F] [F,F]>[F,CF] [F,A,C]>[F,C] | (3C,C,C, F,>A,[K:treble] C4 | %18
 (3[B,CE][B,CE][B,CE] [B,CE]>[K:bass][B,CE] [G,CE]4 | (3[C,C][C,C][C,C] [C,C]>[C,C] [F,C]4 | %20
 (3[F,F][F,F][F,F] [F,F]>[F,F] [F,F]>[F,CF] [F,A,C]>[F,A,C] | %21
 (3[B,,B,][B,,F,B,][B,,F,B,] [B,,B,]>[B,,B,] [B,,B,]4 | %22
 [C,G,]>[C,G,] [C,G,]>[C,G,] [C,C]>[C,C] [C,C]>[C,B,] |[M:3/4] [F,A,]2 [F,CF]2 [F,A,C]2 | %24
[M:1/4] z2 |[M:4/4] [F,,F,]2 [C,,C,]2 [D,,D,]2 [A,,,A,,]2 | z2[K:treble] [Fd]4[K:bass] z2 | %27
 [C,,C,]2 [D,,D,]2 [C,,C,]2 [C,,C,]2 | [F,,F,]6 z2 |] %29
V:3
 x8 | x8 | x8 | x8 | x8 | x8 | x8 | x8 | x8 | x8 | x8 | x8 | x8 | x8 | x8 |[M:9/8] z3 z [CE]2 z3 | %16
[M:4/4] x8 | x8 | x8 | x8 | x8 | x8 | x8 |[M:3/4] x6 |[M:1/4] x2 |[M:4/4] x8 | %26
 [FBd]2 z2[K:bass] z2[K:treble] e>d | z2 =B,2 z4 | x8 |] %29
V:4
 x8 | x8 | x8 | x8 | x8 | x8 | x8 | x8 | x8 | x8 | x8 | x8 | x8 | x8 | x4[K:treble] x4 | %15
[M:9/8] z3[K:bass] z C,2- C,3 |[M:4/4] x8 | x4[K:treble] x4 | x7/2[K:bass] x9/2 | x8 | x8 | x8 | %22
 x8 |[M:3/4] x6 |[M:1/4] x2 |[M:4/4] x8 | z4[K:treble][K:bass] z2 [F_A]2 | x8 | x8 |] %29
V:5
 x8 | x8 | x8 | x8 | x8 | x8 | x8 | x8 | x8 | x8 | x8 | x8 | x8 | x8 | x8 |[M:9/8] x9 |[M:4/4] x8 | %17
 x8 | x8 | x8 | x8 | x8 | x8 |[M:3/4] x6 |[M:1/4] x2 |[M:4/4] x8 | z4[K:bass] =B,,4[K:treble] | %27
 x8 | x8 |] %29
V:6
 x8 | x8 | x8 | x8 | x8 | x8 | x8 | x8 | x8 | x8 | x8 | x8 | x8 | x8 | x4[K:treble] x4 | %15
[M:9/8] x2[K:bass] x7 |[M:4/4] x8 | x4[K:treble] x4 | x7/2[K:bass] x9/2 | x8 | x8 | x8 | x8 | %23
[M:3/4] x6 |[M:1/4] x2 |[M:4/4] x8 | [B,,,B,,]4[K:treble][K:bass] =B,,,4 | x8 | x8 |] %29

